X: 30002
T: Off In The Morning
R: reel
M: 4/4
K: Gmajor
zD|GzGB dB~B2|gBfB eBdB|cBAc BAG2|Add^c decA|
GDGB dB~B2|(3gag fg egdB|cBAc BAGB|ADFA G2:|
|:Bd|gzgf gdBd|(3gag fg egdB|cBAc BAG2|Add^c defa|
fggf gdBd|(3gfg bg egdB|cBAc BAGB|ADFA G2:|

